X:1
T:South of the Grampians
M:4/4
L:1/8
R:Highland
B:Kerr's Merry Melodies V.1, p.12
S:Tommy Peoples - Workshop 7/19/01
Z:AK/Fiddler's Companion irtrad-l 2001-7-24
K:A
[| A,>B,C>D E<C E2 \
| A>E{F/G/}F>E A>E A<c \
| A,>B,C>D [C3E3] c \
| (3dcB (3cBA (3GFE (3DCB, |
| A,>B,C>D E<C E2 \
| A>E{F/G/}F>E A>EA>c \
| d>cd>f e<c a>c \
| (3dcB (3cBA G<B B2 |
| A>ec>e (A/c/)e ~c2 \
| A>ec>e (3Ace (3fga \
| A>ec>e A/c/e {a/b/}a>g \
| (3fed (3dBA G<B B2 |
| A>ec>e A/c/e ~c2 \
| A>ec>e (3Ace (3fga \
| (3agf (3edc (3ded (3cdc \
| (3fed (3cBA (3GFE (3DCB, |]
